icon/ir/forward-outline.svg

<svg stroke-width="1.5" viewBox="0 0 24 24" fill="none" xmlns="http://www.w3.org/2000/svg" height="1em" width="1em">
  <path d="M2.95592 5.70436C2.55976 5.41246 2 5.69531 2 6.1874V17.8126C2 18.3047 2.55976 18.5875 2.95592 18.2956L10.8445 12.483C11.1699 12.2432 11.1699 11.7568 10.8445 11.517L2.95592 5.70436Z" stroke="currentColor" stroke-linecap="round" stroke-linejoin="round"/>
  <path d="M13.9559 5.70436C13.5598 5.41246 13 5.69531 13 6.1874V17.8126C13 18.3047 13.5598 18.5875 13.9559 18.2956L21.8445 12.483C22.1699 12.2432 22.1699 11.7568 21.8445 11.517L13.9559 5.70436Z" stroke="currentColor" stroke-linecap="round" stroke-linejoin="round"/>
</svg>

<svg width="24" height="24" stroke-width="1.5" fill="none" xmlns="http://www.w3.org/2000/svg"><path d="M2.956 5.704A.6.6 0 0 0 2 6.187v11.626a.6.6 0 0 0 .956.483l7.889-5.813a.6.6 0 0 0 0-.966l-7.89-5.813ZM13.956 5.704a.6.6 0 0 0-.956.483v11.626a.6.6 0 0 0 .956.483l7.889-5.813a.6.6 0 0 0 0-.966l-7.89-5.813Z" stroke="currentColor" stroke-linecap="round" stroke-linejoin="round"/></svg>
